X:106
T:Nellie The Elephant
M:6/8
L:1/8
K:G
Bcd BAG | B2B d2d | e2e gfe | d3 B3 |
c2c AAA | ded B3 | f3 e3 | ded cBA |
Bcd BAG | B2B d2d | e2e gfe | d3 B3 |
c2c AAA | ded B3 | e2cA2 F | G3 G2 ||
A | GBd g2 f | g3 d3 | e3 d2c | B3-B2B |
A2B cBA | d2e ffg | a2g f2e | ded cBA |
Bcd BAG | B2B d2d | e2e gfe | d3 B3 |
c2c AAA | ded B3 | e2cA2 F | G3 G3 ||
